icons/abstract_symbols/campsite_symbols/tipi_campsite_with_dollar.svg

<svg viewBox="0 0 15 15" xmlns="http://www.w3.org/2000/svg">
 <path d="m7.5 0.5h1.5l-1.85 3.04 4.6 8.46h0.75c0.28 0 0.5 0.22 0.5 0.5v1c0 0.28-0.22 0.5-0.5 0.5h-12c-0.28 0-0.5-0.22-0.5-0.5v-1c0-0.28 0.22-0.5 0.5-0.5h0.75l4.6-8.46-1.85-3.04h1.5l1 1.84zm-1 6.5-2.5 5h5zm6.5-7v1h1c0.5 0 1 0.5 1 1h-2v1h0.5c0.83 0 1.5 0.67 1.5 1.5s-0.67 1.5-1.5 1.5h-0.5v1h-1v-1h-1c-0.5 0-1-0.5-1-1h2v-1h-0.5c-0.83 0-1.5-0.67-1.5-1.5s0.67-1.5 1.5-1.5h0.5v-1zm0 5h0.5c0.28 0 0.5-0.22 0.5-0.5s-0.22-0.5-0.5-0.5h-0.5zm-1-2v-1h-0.5c-0.28 0-0.5 0.22-0.5 0.5s0.22 0.5 0.5 0.5z"/>
</svg>

<svg xmlns="http://www.w3.org/2000/svg" viewBox="0 0 15 15">
  <path d="M7.5 0.5L9 0.5L7.15 3.54L11.59 11.71L11.75 12L12.5 12C12.78 12 13 12.22 13 12.5L13 13.5C13 13.78 12.78 14 12.5 14L0.5 14C0.22 14 0 13.78 0 13.5L0 12.5C0 12.22 0.22 12 0.5 12L1.25 12L5.85 3.54L4 0.5L5.5 0.5L6.5 2.34L7.5 0.5ZM6.5 7L4 12L9 12L6.5 7ZM13 0L13 1L13.5 1C14.28 1 14.92 1.59 14.99 2.36L15 2.5L14 2.5C14 2.22 13.78 2 13.5 2L13 2L13 3L13.5 3C14.33 3 15 3.67 15 4.5C15 5.33 14.33 6 13.5 6L13 6L13 7L12 7L12 6L11.5 6C10.72 6 10.08 5.41 10.01 4.64L10 4.5L11 4.5C11 4.78 11.22 5 11.5 5L12 5L12 4L11.5 4C10.67 4 10 3.33 10 2.5C10 1.67 10.67 1 11.5 1L12 1L12 0L13 0ZM13.5 4L13 4L13 5L13.5 5C13.78 5 14 4.78 14 4.5C14 4.22 13.78 4 13.5 4ZM12 2L11.5 2C11.22 2 11 2.22 11 2.5C11 2.78 11.22 3 11.5 3L12 3L12 2Z"/>
</svg>
